svgs/sharp-solid/fondue-pot.svg

<svg xmlns="http://www.w3.org/2000/svg" viewBox="0 0 512 512"><!--! Font Awesome Pro 6.6.0 by @fontawesome - https://fontawesome.com License - https://fontawesome.com/license (Commercial License) Copyright 2024 Fonticons, Inc. --><path d="M392.9 172.4l-13.3-8.9-19 28.5-38.5 0 30.8-46.2-13.3-8.9L430.9 0l53.3 35.5L392.9 172.4zM231.5 192l9.2-36.8-15.5-3.9L263 0l62.1 15.5L287.3 166.8l-15.5-3.9L264.5 192l-33 0zM0 224l64 0 0 16 0 64 0 16 32 0 0-16 0-48 32 0 0 16 0 16 32 0 0-16 0-32 0-16 192 0 32 0 64 0 32 0 32 0 0 64-32 0-32 0 0 32c0 52.3-25.1 98.8-64 128l0 32 0 32-64 0 0-32 0-3.2c-10.3 2.1-21 3.2-32 3.2l-128 0c-11 0-21.7-1.1-32-3.2l0 3.2 0 32-64 0 0-32 0-32C25.1 418.8 0 372.3 0 320l0-96z"/></svg>

<svg xmlns="http://www.w3.org/2000/svg" viewBox="0 0 512 512"><!--! Font Awesome Pro 6.4.2 by @fontawesome - https://fontawesome.com License - https://fontawesome.com/license (Commercial License) Copyright 2023 Fonticons, Inc. --><path d="M392.9 172.4l-13.3-8.9-19 28.5H322.1l30.8-46.2-13.3-8.9L430.9 0l53.3 35.5L392.9 172.4zM231.5 192l9.2-36.8-15.5-3.9L263 0l62.1 15.5L287.3 166.8l-15.5-3.9L264.5 192h-33zM0 224H64v16 64 16H96V304 256h32v16 16h32V272 240 224H352h32 64 32 32v64H480 448v32c0 52.3-25.1 98.8-64 128v32 32H320V480v-3.2c-10.3 2.1-21 3.2-32 3.2H160c-11 0-21.7-1.1-32-3.2V480v32H64V480 448C25.1 418.8 0 372.3 0 320V224z"/></svg>
